X:657
T:
S:Efter Karl Odin Kaupe i Fröjel.
R:kadrilj
O:Gotland, Fröjel
M:2/4
L:1/16
K:F
C2|F2FG ABcd|c2f2A2c2|fAcf afga|b2b2 b2cd|e2ef g2ga|b2ge cbge|fcfa gbeg|f2f2
f2::EF|FGEc cBGd|dcGe ecGf|ec'ge dafd|cBdc cBAG|Acfa cfac'|Bdfb dfbd'|EGce
Gceg|f2a2 f2::c2|f6 af|c6 ^c2|d2ef gfed|c2cd efga|b2ba gfed|c4dcde|fgaf
gabg|f2a2 f2::c2|b3g a3f|g2cd efga|b2gb a2c'a|gcBc Bcde|f4 fgaf|e4 % infört rättelse från originalboken _e -> e
defd|cdef gabg|f2a2 f2:|

